assets/images/toolchain-column-2.svg

<svg width="65" height="44" viewBox="0 0 65 44" fill="none" xmlns="http://www.w3.org/2000/svg">
<path fill-rule="evenodd" clip-rule="evenodd" d="M18.3175 15.9798C18.3175 16.8853 18.4039 17.6194 18.5552 18.1578C18.7282 18.6962 18.9444 19.2836 19.2471 19.9197C19.3551 20.1155 19.3984 20.3113 19.3984 20.4826C19.3984 20.7274 19.2687 20.972 18.9877 21.2168L17.6256 22.2445C17.431 22.3913 17.2366 22.4648 17.0636 22.4648C16.8474 22.4648 16.6313 22.3425 16.4151 22.1222C16.1124 21.7552 15.8531 21.3636 15.6368 20.972C15.4206 20.5559 15.2045 20.091 14.9666 19.5281C13.2803 21.7797 11.1618 22.9052 8.61081 22.9052C6.79497 22.9052 5.34651 22.3178 4.28728 21.1433C3.22804 19.9685 2.6875 18.4024 2.6875 16.4447C2.6875 14.3644 3.33607 12.676 4.65485 11.4035C5.97363 10.1309 7.72473 9.49475 9.95123 9.49475C10.6862 9.49475 11.443 9.56803 12.2429 9.69054C13.0428 9.81283 13.8643 10.0086 14.7289 10.2289V8.44249C14.7289 6.58256 14.383 5.28573 13.7128 4.52705C13.0209 3.76838 11.8537 3.40129 10.1889 3.40129C9.43234 3.40129 8.6541 3.49908 7.85421 3.71938C7.05432 3.93967 6.27608 4.20875 5.51948 4.55133C5.17355 4.72263 4.9142 4.82041 4.76288 4.86942C4.61156 4.91842 4.50353 4.9427 4.41695 4.9427C4.11431 4.9427 3.96299 4.6979 3.96299 4.18403V2.98498C3.96299 2.5934 4.00628 2.29981 4.11431 2.12852C4.22234 1.95723 4.41695 1.78594 4.71959 1.61465C5.47619 1.17405 6.3843 0.806969 7.44354 0.513388C8.50297 0.195306 9.62695 0.0485154 10.8161 0.0485154C13.3887 0.0485154 15.2695 0.709182 16.48 2.03074C17.6691 3.35229 18.2744 5.35879 18.2744 8.05068V15.9796H18.3177L18.3175 15.9798ZM9.54037 19.6994C10.2539 19.6994 10.9888 19.5526 11.7671 19.2591C12.5453 18.9655 13.2372 18.4271 13.8208 17.6929C14.1667 17.2281 14.4261 16.714 14.556 16.1268C14.6856 15.5394 14.772 14.8297 14.772 13.9978V12.97C14.1451 12.7987 13.4749 12.652 12.7832 12.5539C12.0914 12.4562 11.4213 12.4072 10.7511 12.4072C9.30267 12.4072 8.24343 12.7252 7.52992 13.3861C6.81642 14.0468 6.47069 14.9768 6.47069 16.2003C6.47069 17.3506 6.73004 18.207 7.27058 18.7942C7.78947 19.4061 8.54607 19.6997 9.54057 19.6997L9.54037 19.6994ZM26.8998 22.3423C26.5106 22.3423 26.2512 22.269 26.0783 22.0975C25.9053 21.9507 25.754 21.6081 25.6243 21.1431L20.544 2.22653C20.4143 1.73716 20.3494 1.41907 20.3494 1.24778C20.3494 0.856193 20.5224 0.635897 20.8683 0.635897H22.987C23.3976 0.635897 23.6788 0.709403 23.8301 0.880695C24.0031 1.02749 24.1328 1.37007 24.2624 1.83516L27.8943 18.0353L31.2668 1.83516C31.3749 1.34579 31.5045 1.02749 31.6775 0.880695C31.8505 0.733905 32.1531 0.635897 32.5423 0.635897H34.2718C34.6824 0.635897 34.9636 0.709403 35.1366 0.880695C35.3096 1.02749 35.4609 1.37007 35.5473 1.83516L38.9629 18.2311L42.703 1.83516C42.8326 1.34579 42.984 1.02749 43.1353 0.880695C43.3083 0.733905 43.5892 0.635897 43.9785 0.635897H45.9889C46.3348 0.635897 46.5294 0.831691 46.5294 1.24778C46.5294 1.37007 46.5078 1.49258 46.4862 1.63937C46.4645 1.78616 46.4212 1.98195 46.3348 2.25125L41.1248 21.1678C40.9952 21.6572 40.8438 21.9752 40.6709 22.1222C40.4979 22.269 40.2169 22.367 39.8493 22.367H37.9902C37.5794 22.367 37.2984 22.2935 37.1254 22.1222C36.9524 21.951 36.8011 21.6329 36.7147 21.1433L33.3639 5.35901L30.0346 21.1188C29.9266 21.6081 29.7967 21.9262 29.6238 22.0975C29.4508 22.2688 29.1482 22.3423 28.7591 22.3423H26.9H26.8998ZM54.6793 23.003C53.5551 23.003 52.4309 22.8562 51.35 22.5626C50.2692 22.269 49.426 21.9507 48.864 21.5836C48.5181 21.3633 48.2803 21.1188 48.1938 20.8985C48.1074 20.6782 48.0641 20.4336 48.0641 20.2133V18.9653C48.0641 18.4514 48.2371 18.2066 48.5613 18.2066C48.691 18.2066 48.8207 18.2311 48.9504 18.2801C49.08 18.3291 49.2747 18.4269 49.4909 18.5249C50.2259 18.892 51.0257 19.1856 51.8689 19.3813C52.7338 19.5771 53.5767 19.6749 54.4416 19.6749C55.8034 19.6749 56.8629 19.4056 57.5978 18.8673C58.3328 18.3289 58.722 17.5457 58.722 16.5424C58.722 15.8573 58.5274 15.2944 58.1384 14.8295C57.7491 14.3644 57.0142 13.9486 55.9549 13.557L52.8203 12.4557C51.2422 11.8928 50.0747 11.0609 49.3614 9.95962C48.6481 8.88286 48.2805 7.68382 48.2805 6.41127C48.2805 5.38351 48.4752 4.47805 48.8642 3.69487C49.2532 2.9117 49.7721 2.22653 50.4207 1.68815C51.0692 1.12527 51.8042 0.709403 52.669 0.415601C53.5338 0.1218 54.4418 -0.000488281 55.393 -0.000488281C55.8686 -0.000488281 56.3658 0.0240136 56.8414 0.0972983C57.3387 0.170804 57.7926 0.26859 58.2466 0.366377C58.6789 0.488666 59.0898 0.611175 59.4788 0.757965C59.8678 0.904755 60.1706 1.05155 60.3867 1.19856C60.6893 1.39435 60.9056 1.59014 61.0353 1.81022C61.1649 2.00601 61.2299 2.27531 61.2299 2.6179V3.76816C61.2299 4.28204 61.0569 4.55133 60.7326 4.55133C60.5597 4.55133 60.2787 4.45333 59.9111 4.25753C58.6789 3.62137 57.2952 3.30307 55.7603 3.30307C54.5281 3.30307 53.5553 3.52336 52.8851 3.98823C52.2149 4.45311 51.8689 5.16278 51.8689 6.16625C51.8689 6.85142 52.0852 7.4388 52.5175 7.90367C52.9498 8.36854 53.7497 8.83364 54.8955 9.24951L57.9654 10.3508C59.5219 10.9136 60.6461 11.6968 61.3163 12.7001C61.9865 13.7033 62.3108 14.8536 62.3108 16.1261C62.3108 17.1784 62.1162 18.1329 61.7488 18.9648C61.3596 19.797 60.8409 20.5309 60.1706 21.1183C59.5004 21.73 58.7005 22.1706 57.771 22.4887C56.7981 22.8313 55.7822 23.0025 54.6795 23.0025L54.6793 23.003Z" fill="#252F3E"/>
<path fill-rule="evenodd" clip-rule="evenodd" d="M58.7654 34.8965C51.653 40.8432 41.3194 43.9999 32.4344 43.9999C19.9821 43.9999 8.76244 38.7875 0.287955 30.1246C-0.382259 29.4395 0.223215 28.5095 1.0231 29.0479C10.1893 35.0678 21.4957 38.7142 33.191 38.7142C41.0817 38.7142 49.7506 36.8542 57.7278 33.0366C58.9167 32.4247 59.9329 33.9176 58.7654 34.8965Z" fill="#FF9900"/>
<path fill-rule="evenodd" clip-rule="evenodd" d="M61.727 31.0788C60.8191 29.7573 55.7171 30.4424 53.404 30.7607C52.7121 30.8585 52.6041 30.1733 53.231 29.6595C57.2952 26.4292 63.9753 27.3592 64.7536 28.4359C65.5318 29.5372 64.5373 37.099 60.7327 40.7206C60.149 41.2835 59.5869 40.9899 59.8464 40.2557C60.7112 37.8329 62.6351 32.3759 61.7272 31.0788H61.727Z" fill="#FF9900"/>
</svg>

<svg xmlns="http://www.w3.org/2000/svg" width="65" height="44" fill="none"><path fill="#252F3E" fill-rule="evenodd" d="M18.318 15.98c0 .905.086 1.64.237 2.178.173.538.39 1.126.692 1.762.108.195.151.391.151.563 0 .244-.13.489-.41.734l-1.362 1.027c-.195.147-.39.22-.562.22-.217 0-.433-.121-.649-.342a7.6 7.6 0 0 1-.778-1.15 20 20 0 0 1-.67-1.444q-2.53 3.377-6.356 3.377c-1.816 0-3.264-.587-4.324-1.762-1.059-1.175-1.6-2.74-1.6-4.698 0-2.08.65-3.769 1.968-5.042s3.07-1.908 5.296-1.908c.735 0 1.492.073 2.292.196.8.122 1.621.318 2.486.538V8.442c0-1.86-.346-3.156-1.016-3.915-.692-.759-1.86-1.126-3.524-1.126-.757 0-1.535.098-2.335.318s-1.578.49-2.335.832c-.345.172-.605.27-.756.318-.151.05-.26.074-.346.074-.303 0-.454-.245-.454-.759V2.985c0-.392.043-.685.151-.856.108-.172.303-.343.606-.514Q5.854.955 7.444.513C8.503.195 9.627.05 10.816.05c2.573 0 4.454.66 5.664 1.982 1.19 1.321 1.794 3.328 1.794 6.02v7.929zM9.54 19.7c.714 0 1.449-.147 2.227-.44.778-.295 1.47-.833 2.054-1.567.346-.465.605-.979.735-1.566s.216-1.297.216-2.13V12.97a16 16 0 0 0-1.989-.416 14.5 14.5 0 0 0-2.032-.147c-1.448 0-2.508.318-3.221.98-.714.66-1.06 1.59-1.06 2.813 0 1.15.26 2.007.8 2.594.52.612 1.276.906 2.27.906m17.36 2.642c-.39 0-.649-.073-.822-.244-.173-.147-.324-.49-.454-.955l-5.08-18.916c-.13-.49-.195-.808-.195-.98 0-.39.173-.611.52-.611h2.118c.41 0 .692.073.843.245.173.146.303.49.432.954l3.632 16.2 3.373-16.2c.108-.49.238-.808.41-.954.174-.147.476-.245.865-.245h1.73c.41 0 .692.073.865.245.173.146.324.49.41.954l3.416 16.396 3.74-16.396c.13-.49.281-.808.432-.954.173-.147.454-.245.843-.245h2.01c.347 0 .541.196.541.612 0 .122-.021.245-.043.391a4 4 0 0 1-.151.612l-5.21 18.917q-.195.734-.454.954c-.173.147-.454.245-.822.245H37.99c-.41 0-.692-.073-.865-.245s-.324-.49-.41-.979L33.364 5.36l-3.33 15.76c-.107.49-.237.807-.41.979-.173.17-.476.244-.865.244zm27.78.661c-1.125 0-2.25-.147-3.33-.44s-1.924-.612-2.486-.98c-.346-.22-.584-.464-.67-.684a1.9 1.9 0 0 1-.13-.686v-1.248c0-.514.173-.758.497-.758q.195 0 .39.073c.129.05.324.147.54.245.735.367 1.535.66 2.378.856.865.196 1.708.294 2.573.294 1.361 0 2.42-.27 3.156-.808.735-.538 1.124-1.321 1.124-2.325 0-.685-.195-1.248-.584-1.713s-1.124-.88-2.183-1.272l-3.135-1.101c-1.578-.563-2.745-1.395-3.459-2.496a6.34 6.34 0 0 1-1.08-3.549q0-1.541.583-2.716a6.1 6.1 0 0 1 1.557-2.007A6.6 6.6 0 0 1 52.669.416C53.534.122 54.442 0 55.393 0c.476 0 .973.024 1.448.097.498.074.952.172 1.406.27.432.122.843.244 1.232.391q.584.22.908.44c.302.196.519.392.648.612q.195.294.195.808v1.15c0 .514-.173.783-.497.783-.173 0-.454-.098-.822-.293q-1.849-.955-4.15-.955c-1.233 0-2.206.22-2.876.685S51.87 5.163 51.87 6.166c0 .685.216 1.273.648 1.738s1.233.93 2.378 1.346l3.07 1.1c1.557.564 2.681 1.347 3.351 2.35s.995 2.154.995 3.426c0 1.052-.195 2.007-.562 2.839-.39.832-.908 1.566-1.578 2.153-.67.612-1.47 1.053-2.4 1.37a9.2 9.2 0 0 1-3.092.515" clip-rule="evenodd"/><path fill="#F90" fill-rule="evenodd" d="M58.765 34.897C51.653 40.843 41.32 44 32.435 44 19.981 44 8.761 38.788.287 30.125c-.67-.686-.065-1.616.735-1.077 9.166 6.02 20.473 9.666 32.168 9.666 7.89 0 16.56-1.86 24.537-5.677 1.189-.612 2.205.88 1.037 1.86" clip-rule="evenodd"/><path fill="#F90" fill-rule="evenodd" d="M61.727 31.079c-.908-1.322-6.01-.637-8.323-.318-.692.098-.8-.588-.173-1.101 4.064-3.23 10.744-2.3 11.523-1.224.778 1.101-.217 8.663-4.021 12.285-.584.563-1.146.269-.887-.465.865-2.423 2.79-7.88 1.881-9.177" clip-rule="evenodd"/></svg>
